X:30
T:Hunters House
C:Ed Reavy
S:arr. Paddy O'Brien 
R:reel
E:9
I:speed 350
M:C|
K:G
G/2A/2|Bd~d2 cAFA|~G2BG DGBG|Bd~d2 cAFA|GBAG FDCE|\
DGBG cAFA|(3BAG AF GABc|defg agfd|cAFA G2:|\
G/2A/2|~B2 gB aBgB|~B2gf edcB|~A2ad bdad|dfaf gfed|1\
~B2gB aBgB|~B2 gf edcB|~c2 Ag fdBd|cAFA BG G2:|2 Bdgb afgd|\
Bdgf edcB|~c2 Ag fg (3agf|gdBd cAFA||**

\vfill\eject

